imgs/checklistIcon.svg

<svg width="38" height="38" viewBox="0 0 38 38" fill="none" xmlns="http://www.w3.org/2000/svg">
<g clip-path="url(#clip0_1_181)">
<path d="M3.06446 33.6967H19V32.4706H3.06446C2.04901 32.4706 1.22575 31.6474 1.22575 30.6319V3.66419C1.22575 2.64844 2.04901 1.82548 3.06446 1.82548H30.0322C31.0481 1.82548 31.8709 2.64844 31.8709 3.66419V17.7609H33.097V3.66419C33.095 1.9725 31.7241 0.601729 30.0322 0.599731H3.06446C1.37308 0.601729 0.00215071 1.9725 0 3.66419V30.6319C0.00215071 32.3236 1.37308 33.6944 3.06446 33.6967Z" fill="white"/>
<path d="M2.45175 3.05151H3.67735V4.27711H2.45175V3.05151Z" fill="white"/>
<path d="M4.90317 3.05151H6.12923V4.27711H4.90317V3.05151Z" fill="white"/>
<path d="M7.35483 3.05151H8.58073V4.27711H7.35483V3.05151Z" fill="white"/>
<path d="M2.45175 5.50293H30.6451V6.72899H2.45175V5.50293Z" fill="white"/>
<path d="M8.76021 8.13416L7.2034 9.69096C5.88748 8.81977 4.12528 9.08707 3.12658 10.3093C2.12803 11.5314 2.2176 13.3115 3.33351 14.4273C4.44927 15.5435 6.22959 15.6331 7.45181 14.6344C8.67388 13.6358 8.94133 11.8733 8.06999 10.5577L9.62664 9.00089L8.76021 8.13416ZM5.51587 14.0835C4.50058 14.0835 3.67731 13.2604 3.67731 12.2449C3.67731 11.2293 4.50058 10.4064 5.51587 10.4064C5.78931 10.4073 6.05831 10.47 6.30364 10.59L5.0828 11.8109L5.94923 12.6777L7.17099 11.4575C7.29097 11.7026 7.3538 11.9716 7.35472 12.2449C7.35472 13.2604 6.53177 14.0835 5.51587 14.0835Z" fill="white"/>
<path d="M10.4193 10.4064H20.8384V11.632H10.4193V10.4064Z" fill="white"/>
<path d="M10.4193 12.8579H14.7095V14.0835H10.4193V12.8579Z" fill="white"/>
<path d="M15.9356 12.8579H24.516V14.0835H15.9356V12.8579Z" fill="white"/>
<path d="M22.0645 10.4064H28.1935V11.632H22.0645V10.4064Z" fill="white"/>
<path d="M8.76021 15.4889L7.2034 17.0457C5.88748 16.1745 4.12528 16.4418 3.12658 17.664C2.12803 18.8862 2.2176 20.6663 3.33351 21.7823C4.44927 22.8982 6.22959 22.9878 7.45181 21.9891C8.67388 20.9904 8.94133 19.2285 8.06999 17.9124L9.62664 16.3556L8.76021 15.4889ZM5.51587 21.4384C4.50058 21.4384 3.67731 20.6151 3.67731 19.5997C3.67731 18.5841 4.50058 17.7608 5.51587 17.7608C5.78931 17.7619 6.05831 17.8247 6.30364 17.9447L5.0828 19.166L5.94923 20.0324L7.17099 18.812C7.29097 19.0574 7.3538 19.3264 7.35472 19.5997C7.35472 20.6151 6.53177 21.4384 5.51587 21.4384Z" fill="white"/>
<path d="M10.4193 17.7609H20.8384V18.9868H10.4193V17.7609Z" fill="white"/>
<path d="M10.4193 20.2126H14.7095V21.4384H10.4193V20.2126Z" fill="white"/>
<path d="M15.9356 20.2126H20.8386V21.4384H15.9356V20.2126Z" fill="white"/>
<path d="M22.0645 17.7609H24.516V18.9868H22.0645V17.7609Z" fill="white"/>
<path d="M8.76021 22.8438L7.2034 24.4006C5.88748 23.5294 4.12528 23.7967 3.12658 25.0189C2.12803 26.2411 2.2176 28.0211 3.33351 29.1372C4.44927 30.2533 6.22959 30.3425 7.45181 29.344C8.67388 28.3453 8.94133 26.5832 8.06999 25.2671L9.62664 23.7105L8.76021 22.8438ZM5.51587 28.7932C4.50058 28.7932 3.67731 27.97 3.67731 26.9545C3.67731 25.9389 4.50058 25.1158 5.51587 25.1158C5.78931 25.1167 6.05831 25.1794 6.30364 25.2996L5.0828 26.5209L5.94923 27.3873L7.17099 26.1669C7.29097 26.4122 7.3538 26.6814 7.35472 26.9545C7.35472 27.97 6.53177 28.7932 5.51587 28.7932Z" fill="white"/>
<path d="M10.4193 25.1158H18.3869V26.3419H10.4193V25.1158Z" fill="white"/>
<path d="M10.4193 27.5675H14.7095V28.7933H10.4193V27.5675Z" fill="white"/>
<path d="M15.9356 27.5675H18.3871V28.7933H15.9356V27.5675Z" fill="white"/>
<path d="M28.8065 37.3741C33.8842 37.3741 37.9999 33.2577 37.9999 28.1805C37.9999 23.1028 33.8842 18.9868 28.8065 18.9868C23.7289 18.9868 19.6129 23.1028 19.6129 28.1805C19.6188 33.2554 23.7313 37.368 28.8065 37.3741ZM28.8065 20.2127C33.2067 20.2127 36.7743 23.78 36.7743 28.1805C36.7743 32.581 33.2067 36.1481 28.8065 36.1481C24.4059 36.1481 20.8385 32.581 20.8385 28.1805C20.8437 23.7821 24.4079 20.2176 28.8065 20.2127Z" fill="white"/>
<path d="M25.0679 28.5191L23.9708 29.0669L25.1967 31.5186C25.2845 31.695 25.4523 31.8183 25.6469 31.8498C25.6786 31.8547 25.7102 31.8573 25.742 31.8578C25.9044 31.8578 26.0603 31.7931 26.1756 31.6782L33.5301 24.3234L32.6636 23.4567L25.9098 30.2102L25.0679 28.5191Z" fill="white"/>
</g>
<defs>
<clipPath id="clip0_1_181">
<rect width="38" height="38" fill="white"/>
</clipPath>
</defs>
</svg>

<svg xmlns="http://www.w3.org/2000/svg" width="38" height="38" fill="none" xmlns:v="https://vecta.io/nano"><g clip-path="url(#A)" fill="#fff"><path d="M3.064 33.697H19v-1.226H3.064a1.84 1.84 0 0 1-1.839-1.839V3.664a1.84 1.84 0 0 1 1.839-1.839h26.968a1.84 1.84 0 0 1 1.839 1.839v14.097h1.226V3.664A3.07 3.07 0 0 0 30.032.6H3.064A3.07 3.07 0 0 0 0 3.664v26.968a3.07 3.07 0 0 0 3.064 3.065zM2.452 3.052h1.226v1.226H2.452V3.052zm2.451 0h1.226v1.226H4.903V3.052zm2.452 0h1.226v1.226H7.355V3.052zM2.452 5.503h28.193v1.226H2.452V5.503zM8.76 8.134L7.203 9.691c-1.316-.871-3.078-.604-4.077.618s-.909 3.002.207 4.118 2.896 1.206 4.118.207 1.49-2.761.618-4.077L9.626 9l-.866-.867zm-3.244 5.949a1.84 1.84 0 0 1-1.839-1.839 1.84 1.84 0 0 1 1.839-1.838 1.81 1.81 0 0 1 .788.184l-1.221 1.221.866.867 1.222-1.22c.12.245.183.514.184.787a1.84 1.84 0 0 1-1.839 1.839z"/><use href="#B"/><use href="#C"/><path d="M15.936 12.858h8.58v1.226h-8.58v-1.226zm6.129-2.452h6.129v1.226h-6.129v-1.226zM8.76 15.489l-1.557 1.557c-1.316-.871-3.078-.604-4.077.618s-.909 3.002.207 4.118 2.896 1.206 4.118.207 1.49-2.761.618-4.077l1.557-1.557-.866-.867zm-3.244 5.95A1.84 1.84 0 0 1 3.677 19.6a1.84 1.84 0 0 1 1.839-1.839 1.81 1.81 0 0 1 .788.184l-1.221 1.221.866.866 1.222-1.22c.12.245.183.514.184.788a1.84 1.84 0 0 1-1.839 1.839zm4.903-3.678h10.419v1.226H10.419v-1.226zm0 2.452h4.29v1.226h-4.29v-1.226zm5.517 0h4.903v1.226h-4.903v-1.226zm6.129-2.452h2.451v1.226h-2.451v-1.226zM8.76 22.844l-1.557 1.557c-1.316-.871-3.078-.604-4.077.618s-.909 3.002.207 4.118 2.896 1.205 4.118.207 1.49-2.761.618-4.077l1.557-1.557-.866-.867zm-3.244 5.949a1.84 1.84 0 0 1-1.839-1.839 1.84 1.84 0 0 1 1.839-1.839 1.81 1.81 0 0 1 .788.184L5.083 26.52l.866.866 1.222-1.22a1.81 1.81 0 0 1 .184.788 1.84 1.84 0 0 1-1.839 1.839zm4.903-3.677h7.968v1.226h-7.968v-1.226zm0 2.452h4.29v1.226h-4.29v-1.226zm5.517 0h2.451v1.226h-2.451v-1.226zm12.871 9.806c5.078 0 9.193-4.116 9.193-9.194s-4.116-9.194-9.193-9.194-9.194 4.116-9.194 9.194c.006 5.075 4.118 9.188 9.194 9.194zm0-17.161a7.97 7.97 0 0 1 7.968 7.968 7.97 7.97 0 0 1-7.968 7.968 7.97 7.97 0 0 1-7.968-7.968 7.98 7.98 0 0 1 7.968-7.968zm-3.739 8.306l-1.097.548 1.226 2.452a.61.61 0 0 0 .45.331.69.69 0 0 0 .095.008c.162 0 .318-.065.434-.18l7.354-7.355-.866-.867-6.754 6.753-.842-1.691z"/></g><defs><clipPath id="A"><path fill="#fff" d="M0 0h38v38H0z"/></clipPath><path id="B" d="M10.419 10.406h10.419v1.226H10.419v-1.226z"/><path id="C" d="M10.419 12.858h4.29v1.226h-4.29v-1.226z"/></defs></svg>
